X:1
T:G minor Samuel Holyoke, 1803
T:Isaac Watts, 1717 (Psalm 51, Part 1)     88. 88. (L. M.) 
T:Brownford Transcribed from The Columbian Repository, 1803.
%%score [ 1 2 3 4 ]
L:1/8
Q:1/4=160
M:2/2
K:Bb
V:1 treble nm="Tr." snm="Tr."
V:2 treble nm="C." snm="C."
V:3 treble-8 nm="T." snm="T."
V:4 bass nm="B." snm="B."
V:1
"^1. Show  pi – ty, Lord,  O  Lord,  forgive,         Let   a  repenting  rebel   live:         Are not thy mercies large and free?     May   not  a     sinner  trust  in   thee?\n2. My crimes are great, but not surpass     The  power and  glory of thy grace:   Great God, thy nature hath no bound,    So  let  thy pardoning  love be found." B4 | %1
 B4 ^F4 | G4 G4 | A4 ^F4 | G8 | z4 G4 | ^F4 G4 | A4 B4 | c4 B4 | A8 | z4 A4 | B4 ^F4 | G4 G4 | %13
 A4 F4 | F8 | z4 A4 | B4 c4 | d4 c4 | B4 A4 | G8 |] %20
V:2
"^3.  O wash my soul from  eve– ry   sin,   And make my guilty conscience clean;   Here on my heart the burden lies,        And  past  of–fen–ses  pain  my  eyes.\n4.  My lips with shame my sins confess    Against  thy  law, against thy grace:   Lord, should thy judgment grow severe,    I am  condemned, but thou art clear." G4 | %1
 G4 D4 | D4 G4 | ^F4 D4 | D8 | z4 D4 | D4 D4 | F4 F4 | F4 F4 | F8 | z4 F4 | F4 D4 | D4 G4 | %13
 ^F4 C4 | D8 | z4 F4 | F4 (F2 E2) | D4 E4 | D4 D4 | D8 |] %20
V:3
"^5. Should sudden vengeance seize my breath,  I must pronounce thee just in death;   And if my soul were sent to hell,  Thy  righteous law approves  it  well.\n6. Yet save a trembling sinner,  Lord,  Whose hope, still hov'ring round thy word,  Would light on some sweet promise there,  Some sure support against  despair." d4 | %1
 d4 A4 | B4 c4 | d4 A4 | B8 | z4 G4 | A4 B4 | c4 d4 | e4 d4 | c8 | z4 d4 | d4 A4 | B4 c4 | d4 A4 | %14
 B8 | z4 c4 | d4 A4 | B4 A4 | G4 ^F4 | G8 |] %20
V:4
 G,,4 | B,,4 D,4 | G,4 E,4 | D,4 D,4 | G,8- | G,4 G,4 | D,4 G,4 | F,4 F,4 | F,4 F,4 | F,8- | %10
 F,4 D,4 | B,,4 D,4 | G,4 E,4 | D,4 F,4 | B,8- | B,4 (F,2 E,2) | D,4 (D,2 C,2) | B,,4 C,4 | %18
 D,4 D,4 | G,,8 |] %20

